X:1
T:Title
L:1/8
M:4/4
I:linebreak $
K:G
V:1 treble nm="Voice"
V:1
"G" G2 BG DGBG | DGBd"C" cB"D"AF |"G" G2 BG DGBG |"D" DEDC"G" B,G,B,D |"G" G2 BG DGBG | %5
 DGBd"C" c3 c | cBAG"D" FGFE |1 DFAc"G" BG"D"AF :|2 DFAc"G" BG"D"Af |:"G" g2 bg agbg | %10
 dgbg"D" agef |1"G" g2 bg agbg | dedc BGGd :|2 abag fgfe | dfga"G" bg"D"af |[M:2/4]"G" g2 z2 |: %16
[M:4/4]"G" Bcde d2 g2 | Bdgb"D" af"G" g2 | Bcde d2 gd |1"C" cBAc"G" BGGA :|2"C" cBAc"G" BG DE/F/ |] %21
